public/style/workarea/images/icons/exe-import-icon.svg

<svg fill="none" height="20" viewBox="0 0 20 20" width="20" xmlns="http://www.w3.org/2000/svg"><g stroke="#6b7280" stroke-linecap="round" stroke-linejoin="round" stroke-width="1.5"><path d="m14.1666 6.66669-4.16668-4.16667-4.16667 4.16667"/><path d="m10 2.5v10"/><path d="m17.5 12.5v3.3333c0 .4421-.1756.866-.4882 1.1785-.3125.3126-.7364.4882-1.1785.4882h-11.66663c-.44203 0-.86595-.1756-1.17851-.4882-.31257-.3125-.48816-.7364-.48816-1.1785v-3.3333"/></g></svg>

<svg width="20" height="20" viewBox="0 0 20 20" fill="none" xmlns="http://www.w3.org/2000/svg">
<path d="M14.1666 6.66669L9.99992 2.50002L5.83325 6.66669" stroke="#6B7280" stroke-width="1.5" stroke-linecap="round" stroke-linejoin="round"/>
<path d="M10 2.5L10 12.5" stroke="#6B7280" stroke-width="1.5" stroke-linecap="round" stroke-linejoin="round"/>
<path d="M17.5 12.5L17.5 15.8333C17.5 16.2754 17.3244 16.6993 17.0118 17.0118C16.6993 17.3244 16.2754 17.5 15.8333 17.5L4.16667 17.5C3.72464 17.5 3.30072 17.3244 2.98816 17.0118C2.67559 16.6993 2.5 16.2754 2.5 15.8333L2.5 12.5" stroke="#6B7280" stroke-width="1.5" stroke-linecap="round" stroke-linejoin="round"/>
</svg>
